X:1
T:Croghan a venee
M:3/4
L:1/8
R:Air
Q:”Lento espressivo”
B:William Forde – 300 National Melodies of the British Isles (c. 1841, p. 6, No. 17)
B:  https://www.itma.ie/digital-library/text/300-national-melodies-of-the-british-isles.-vol.-3-100.-irish-airs
N:William Forde (c.1795–1850) was a musician, music collector and scholar from County Cork
Z:AK/Fiddler’s Companion
K:Cmin
G2|c2 (cde>c)|(d2g)z (g>f)|e2-c2 c2|_B2-G zG2|c2 (cde>c)|
(d2g)z (g>f)|{f}e2c2c2|c4!fermata!||d2|e>degfe|d2 B zG2|
A>GAcBA|G2E zE2|e>degfe|d2B zG2|AGFEDC|!fermata![C4E4c4]!D.C.!||

